!!!!SEGMENT: artfugue-006.krn
!!!COM: Bach, Johann Sebastian
!!!CDT: 1685/03/31-1750/07/28
!!!OPR@@DE: Die Kunst der Fuge
!!!OPR@EN: The Art of the Fugue
!!!OTL: Contrapunctus 6, a 4, in Stile francese
!!!SCA: BWV 1080
!!!voices: 4
!!!AGN: Stretto fugue
**kern	**kern	**kern	**kern
*part2	*part2	*part1	*part1
*staff4	*staff3	*staff2	*staff1
*I"	*I"	*I"	*I"
*clefF4	*clefC4	*clefC3	*clefC1
*mclefF4	*mclefGv2	*mclefG2	*mclefG2
*k[b-]	*k[b-]	*k[b-]	*k[b-]
*d:	*d:	*d:	*d:
*M4/4	*M4/4	*M4/4	*M4/4
*met(c)	*met(c)	*met(c)	*met(c)
*mmet(c)	*mmet(c)	*mmet(c)	*mmet(c)
*MM80	*MM80	*MM80	*MM80
=1	=1	=1	=1
2D	1r	1r	1r
4.A	.	.	.
8G	.	.	.
=2	=2	=2	=2
4.F	1r	1r	4aa
.	.	.	8.ddL
8E	.	.	.
.	.	.	16eeJk
2D	.	.	8.ffL
.	.	.	16ggJk
.	.	.	4aa
=3	=3	=3	=3
2C#X	1r	2r	4bb-
.	.	.	8.aaL
.	.	.	16ggJk
4.D	.	4d	[4ff
.	.	8.aL	16ffLL]
.	.	.	16ee
8E	.	.	16ff
.	.	16gJk	16ggJJ
=4	=4	=4	=4
[2F	1r	8.fL	8.aaL
.	.	16eJk	16ggJk
.	.	4d	16ffLL
.	.	.	16ee
.	.	.	16dd
.	.	.	16ccJJ
8.FL]	.	4c#X	4b-T
16Gk	.	.	.
.	.	.	.
8.F	.	8.dL	[4a
16EJk	.	16eJk	.
=5	=5	=5	=5
8.DL	1r	[4f	8.aL]
16DDk	.	.	16bXJk
8.EE	.	16fLL]	[4cc
.	.	16g	.
.	.	16f	.
16FFJk	.	16eJJ	.
8.GGL	.	4d	8.ccL]
16AAk	.	.	16bk
8.GG	.	8.eL	8.cc#X
16FFJk	.	16fJk	16ddJk
!!LO:LB:g=original
=6	=6	=6	=6
8.EEL	1r	4g	[4ee
16Ek	.	.	.
8.F	.	[4f	16eeLL]
.	.	.	16ff
.	.	.	16ee
16GJk	.	.	16ddJJ
8.AL	.	8.fL]	4cc#X
16B-k	.	16ek	.
8.A	.	8.f	8.ddL
16GJk	.	16gJk	16eeJk
=7	=7	=7	=7
4F	4d	[2a	8.ffL
.	.	.	16eek
4D	8.AL	.	8.ff
.	16BXJk	.	16ddJk
[2A	8.cL	8.aL]	[2ee
.	16dJk	16bXJk	.
.	4e	[8ccL	.
.	.	32ccLL]	.
.	.	32b	.
.	.	32a	.
.	.	32g#JJJ	.
=8	=8	=8	=8
1A_	4f	2a	8.eeL]
.	.	.	16ddJk
.	8.eL	.	8.cc
.	16dJk	.	16bXkJ
.	[4c	4.ee	8.aL
.	.	.	16aak
.	16cLL]	.	8.gg
.	16BX	.	.
.	16c	8dd	.
.	16dJJ	.	16ffJk
=9	=9	=9	=9
8.AL]	2.e	4.cc	4ee
16Ek	.	.	.
8.A	.	.	4r
.	.	8bX	.
16GJk	.	.	.
8.FL	.	2a	2r
16Dk	.	.	.
8.F	[4d	.	.
16DJk	.	.	.
=10	=10	=10	=10
4.E	8.dL]	2g#	2r
.	16BXk	.	.
.	8.e	.	.
8E	.	.	.
.	16dJk	.	.
8.FL	8.cL	4.aX	4a
16Ek	16dk	.	.
8.F#X	8.c	.	8.eeL
.	.	8bX	.
16G#Jk	16BJk	.	16ddJk
!!LO:LB:g=original
=11	=11	=11	=11
8.AL	8.AL	[2cc	8.ccL
16GnJk	[16ek	.	16bXJk
4F	8.e]	.	4a
.	16e-kJ	.	.
2E	8.eXL	8.ccL]	4g#
.	16BXk	16ddk	.
.	8.c	8.cc	8.aXL
.	16G#Jk	16bXJk	16bJk
=12	=12	=12	=12
1r	8.AL	[4a	[4cc
.	16EJk	.	.
.	[4F	8.aL]	16ccLL]
.	.	.	16dd
.	.	.	16cc
.	.	16g#Jk	16bXJJ
.	16FLL]	[4.aX	[2a
.	16G	.	.
.	16F	.	.
.	16EJJ	.	.
.	[4D	.	.
.	.	32aLLL]	.
.	.	32g	.
.	.	32f	.
.	.	32eJJJ	.
=13	=13	=13	=13
1r	8DL_	[2f	4.a_
.	32DLL]	.	.
.	32A	.	.
.	32B-	.	.
.	32cJJJ	.	.
.	8.dL	.	.
.	.	.	32aLLL]
.	.	.	32a
.	16cJk	.	32b-
.	.	.	32ccJJJ
.	8.B-L	4.f_	[2dd
.	16ck	.	.
.	8.B-	.	.
.	.	32fLLL]	.
.	.	32f	.
.	16AJk	32g	.
.	.	32aJJJ	.
=14	=14	=14	=14
1r	[8GL	[2b-	4.dd_
.	32GLL]	.	.
.	32d	.	.
.	32e	.	.
.	32fJJJ	.	.
.	8.gL	.	.
.	.	.	32ddLLL]
.	.	.	32dd
.	16fJk	.	32ee
.	.	.	32ffJJJ
.	8.eL	8.b-L]	[2gg
.	16fk	16bXJk	.
.	8.e	8ddL	.
.	.	32cc#XLL	.
.	.	32b	.
.	16dJk	32cc#	.
.	.	32ddJJJ	.
!!LO:LB:g=original
=15	=15	=15	=15
4A	4c#X	[4ee	8.ggL]
.	.	.	32ffLL
.	.	.	32eeJJJ
8.DL	[4A	8.eeL]	8.ffL
16EJk	.	32ddLL	16ggJk
.	.	32cc#XJJJ	.
8.FL	4A]	[4dd	8.aaL
16GJk	.	.	32ggLL
.	.	.	32ffJJJ
4A	4r	8.ddL]	8.eeL
.	.	16ccJk	16ff#XJk
=16	=16	=16	=16
4B-	2d	8.b-L	4gg
.	.	16gk	.
8.AL	.	8.f	4r
16GJk	.	16eJk	.
[4F	[4a	8.dL	4aa
.	.	16cc#XJk	.
16FLL]	8aL]	[4dd	8.ddL
16E	.	.	.
16F	8gJ	.	.
16GJJ	.	.	16eeJk
=17	=17	=17	=17
2A	4.f	8.ddL]	8.ffL
.	.	16bXk	16ggJk
.	.	8.cc#X	4aa
.	8e	.	.
.	.	16aJk	.
4r	2d	8.fL	4bb-
.	.	16ek	.
8r	.	8.f	8.aaL
8B-	.	.	.
.	.	16gJk	16ggJk
=18	=18	=18	=18
8.AL	2c#X	[4a	[4ff
16GJk	.	.	.
[4F	.	8.aL]	16ffLL]
.	.	.	16ee
.	.	.	16ff
.	.	16b-Jk	16ggJJ
8FL_	4.d	8.a	4aa
32FLL]	.	.	.
32G	.	.	.
*	*	*clefC1	*
*	*	*mclefG2	*
32F	.	16gg	.
32EJJJ	.	.	.
4D	.	16ffLL	4r
.	.	16ee	.
.	8e	16dd	.
.	.	16cc#XJJ	.
!!LO:LB:g=original
=19	=19	=19	=19
8r	[2f	[4dd	1r
32r	.	.	.
32DLLL	.	.	.
32E	.	.	.
32FJJJ	.	.	.
[4G	.	16ddLL]	.
.	.	16cc	.
.	.	16bX	.
.	.	16aJJ	.
8GL_	8.fL]	8.bL	.
32GLL]	.	.	.
32E	.	.	.
32F	16gk	16gJk	.
32GJJJ	.	.	.
8.AL	8.f	[4cc	.
16GJk	16eJk	.	.
=20	=20	=20	=20
8.FL	4d	8.ccL]	1r
16Dk	.	32bXLL	.
.	.	32aJJJ	.
8.G	4r	8.btL	.
16FJk	.	16ccJk	.
[8EL	2c	8.ccL	.
32ELL]	.	.	.
32C	.	.	.
32D	.	16b-Jk	.
32EJJJ	.	.	.
8.FL	.	8.b-TL	.
16E-Jk	.	32gL	.
.	.	32aJJ	.
=21	=21	=21	=21
8.DL	4.F	8.b-L	2r
16Ck	.	16ddk	.
8.D	.	8.cc	.
.	8G	.	.
16EJk	.	16b-Jk	.
8.FL	4.A	[4a	8r
.	.	.	16r
16Ek	.	.	16dd
8.F	.	8.aL]	8.ccL
.	8B-	.	.
16GJk	.	16gJk	16b-Jk
*	*	*clefC3	*
*	*	*mclefG2	*
=22	=22	=22	=22
[4A	2c	8.fL	8.aL
.	.	16gk	16b-Jk
8AL_	.	8.f	[4cc
32ALL]	.	.	.
32F	.	.	.
32G	.	16e-Jk	.
32AJJJ	.	.	.
8.B-L	2d	4d	8ccL_
.	.	.	32ccLL]
.	.	.	32f
16Ak	.	.	32g
.	.	.	32aJJJ
8.G	.	[4g	8.b-L
16FJk	.	.	16b-Jk
!!LO:LB:g=original
=23	=23	=23	=23
8.EL	4.c	8.gL]	8.b-L
16CJk	.	16eJk	32aLL
.	.	.	32gJJJ
[4F	.	[4f	8.aL
.	8B-	.	.
.	.	.	16b-Jk
8.FL]	[2A	8.fL]	8.ccL
16Gk	.	16eJk	16cck
8.F	.	8.fL	8.dd
16EJk	.	16gJk	16eeJk
=24	=24	=24	=24
2D	8.AL]	4a	8.ffL
.	16Gk	.	16eek
.	8.A	4dd	8.ff
.	16BXJk	.	16ggJk
[8CL	4c	4g	8.eeL
32CLL]	.	.	.
32G	.	.	.
32A	.	.	16ddJk
32BniJJJ	.	.	.
8.cL	4r	4r	[4ee
16B-iJk	.	.	.
=25	=25	=25	=25
8.AL	1r	2f	8.eeL]
16Fk	.	.	32ddLL
.	.	.	32cc#XJJJ
8.B-	.	.	[8ddL
.	.	.	32ddLL]
.	.	.	32cc
16dJk	.	.	32b-
.	.	.	32aJJJ
[4E	.	4.cc	8.gL
.	.	.	16b-k
8EL_	.	.	8.a
32ELL]	.	8b-	.
32C	.	.	.
32D	.	.	16gJk
32EJJJ	.	.	.
=26	=26	=26	=26
8.FL	4c	4.a	[4f
16EJk	.	.	.
[4D	8.FL	.	16fLL]
.	.	.	16e
.	.	8g	16d
.	16GJk	.	16c#XJJ
16DLL]	8.AL	2f	4e
16D	.	.	.
16C	.	.	.
16BB-JJ	16B-Jk	.	.
16AALL	4c	.	8r
16FF	.	.	.
16GG	.	.	16r
16AAJJ	.	.	16dd
!!LO:LB:g=original
=27	=27	=27	=27
16BB-LL	4d-	2e	[4g
16GG	.	.	.
16AA	.	.	.
16BB-JJ	.	.	.
8.CL	8.cL	.	16gLL]
.	.	.	16b-
.	.	.	16a
16C#XJk	16B-Jk	.	16gJJ
16DLL	[4A	4.f	16fLL
16C#	.	.	16a
16D	.	.	16bX
16EJJ	.	.	16cc#XJJ
[4F	16ALL]	.	4dd
.	16G	.	.
.	16A	8g	.
.	16B-JJ	.	.
=28	=28	=28	=28
16FLL]	[4c	[2a	16r
16E	.	.	16ccLL
16F	.	.	16dd
16GJJ	.	.	16eeJJ
[4A	16cLL]	.	8.ffL
.	16BX	.	.
.	16c	.	.
.	16dJJ	.	32eeLL
.	.	.	32ddJJJ
8.AL]	4e	8.aL]	[2cc
16Gk	.	16b-k	.
8.F	4r	8.a	.
16EJk	.	16gJk	.
=29	=29	=29	=29
[4D/	1r	[2f	8.ccL]
.	.	.	16ak
8D_L	.	.	8.dd
32DLL]	.	.	.
32DD	.	.	.
32EE	.	.	16ccJk
32FFJJJ	.	.	.
[4GG	.	8.fL]	[2b-
.	.	16dk	.
8GG_L	.	8.g	.
32GGLL]	.	.	.
32FF	.	.	.
32EE	.	16fJk	.
32DDJJJ	.	.	.
=30	=30	=30	=30
[4.CC	1r	[2e	8.b-L]
.	.	.	16gk
.	.	.	8.cc
32CCLLL]	.	.	.
32C	.	.	.
32D	.	.	16b-Jk
32EJJJ	.	.	.
[4F	.	8.eL]	[2a
.	.	16ck	.
8F_L	.	8.f	.
32FLL]	.	.	.
32E	.	.	.
32D	.	16eJk	.
32CJJJ	.	.	.
!!LO:LB:g=original
=31	=31	=31	=31
2BB-	2D	2.d	8.aL]
.	.	.	32gLL
.	.	.	32fJJJ
.	.	.	8.gL
.	.	.	16eJk
[2AA	4.A/	.	8.fL
.	.	.	16gJk
.	.	4c#X	[4e
.	8G	.	.
=32	=32	=32	=32
1AA_	4.F	4a	8.e]L
.	.	.	32dLL
.	.	.	32c#XJJJ
.	.	8.dL	[4d
.	8E	.	.
.	.	16eJk	.
.	2D	8.fL	8.dL]
.	.	16gJk	16ek
.	.	4a	8.f
.	.	.	16dJk
=33	=33	=33	=33
4.AA]	2C#X	4b-	[8gL
.	.	.	32gLL]
.	.	.	32ee
.	.	.	32ff
.	.	.	32ggJJJ
.	.	8.aL	8.ffL
8AA	.	.	.
.	.	16gJk	16eeJk
8.BB-L	4.D	[4f	8.ddL
16AAJk	.	.	16ccJk
4GG	.	16fLL]	4b-
.	.	16e	.
.	8E	16f	.
.	.	16gJJ	.
=34	=34	=34	=34
8.FFL	[2F	8.aL	8a
.	.	.	8r
16GGk	.	16b-k	.
8.AA	.	8.cc	4r
16CJk	.	16ddJk	.
[2C	8.FL]	8.gL	2r
.	16Gk	16ee-Jk	.
.	8.F	8.aL	.
.	16E-Jk	32b-LL	.
.	.	32ccJJJ	.
!!LO:LB:g=original
=35	=35	=35	=35
4.C]	8.DL	8.f#XL	2dd
.	16F#Xk	16aJk	.
.	8.G	[4d	.
8C	.	.	.
.	16AJk	.	.
4.BB-	4B-	8.dL]	4.g
.	.	16dk	.
.	4c	8.e	.
8AA	.	.	8a
.	.	16f#Jk	.
=36	=36	=36	=36
4GG	[4d	8.gL	4.b-
.	.	16f#Xk	.
8.DL	16dLL]	8.g	.
.	16c	.	.
.	16B-	.	8cc
16CJk	16AJJ	16aJk	.
8.BB-L	4G	8.b-L	2dd
16AAJk	.	32ccLL	.
.	.	32ddJJJ	.
4GG	4r	16ccLL	.
.	.	16b-	.
.	.	16a	.
.	.	16gJJ	.
=37	=37	=37	=37
4FF#X	2r	8.ccL	2ee-
.	.	32b-LL	.
.	.	32aJJJ	.
8.GGL	.	8.b-L	.
16AAJk	.	16f#XJk	.
[4BB-	4d	8.gL	4.dd
.	.	32aLL	.
.	.	32b-JJJ	.
16BB-LL]	8.GL	8.eL	.
16C	.	.	.
16BB-	.	.	8cc
16AAJJ	16AJk	16f#XJk	.
=38	=38	=38	=38
8GGL<	8.B-L	4g	[2b-
[8GJ	.	.	.
.	16cJk	.	.
8G_L	4d	4r	.
32GLL]	.	.	.
32F	.	.	.
32E-	.	.	.
32DJJJ	.	.	.
8.CL	4e-	2r	8.b-L]
16Fk	.	.	16ak
8.G	8.dL	.	8.b-
16AJk	16cJk	.	16ccJk
!!LO:LB:g=original
=39	=39	=39	=39
8.B-L	[4B-	1r	[4dd
16AJk	.	.	.
[4G	16B-LL]	.	16ddLL]
.	16A	.	16ee-
.	16B-	.	16dd
.	16cJJ	.	16ccJJ
8.GL]	[4d	.	16b-LL
.	.	.	16dd
.	.	.	16ee-
16FJk	.	.	16ffJJ
[4E-	16dLL]	.	[4gg
.	16G	.	.
.	16A	.	.
.	16BXJJ	.	.
=40	=40	=40	=40
8.E-L]	4c	1r	16ggLL]
.	.	.	16aa-
.	.	.	16gg
16Dk	.	.	16ffJJ
8.C	4r	.	16ee-LL
.	.	.	16dd
.	.	.	16cc
16DJk	.	.	16b-JJ
16E-LL	2r	.	8.antL
16G	.	.	.
16F	.	.	.
16E-JJ	.	.	32gLL
.	.	.	32fJJJ
16DLL	.	.	[4b-
16C	.	.	.
16BB-	.	.	.
16AAJJ	.	.	.
=41	=41	=41	=41
8.GGL	1r	1r	16b-LL]
.	.	.	16a
.	.	.	16g
16FFk	.	.	16aJJ
8.GG	.	.	16b-LL
.	.	.	16cc
.	.	.	16dd
16BB-Jk	.	.	16eenJJ
16AALL	.	.	8.ffL
16FF	.	.	.
16GG	.	.	.
16AAJJ	.	.	16ee-Jk
16BB-LL	.	.	16ddLL
16C	.	.	16cc
16D	.	.	16b-
16E-JJ	.	.	16aJJ
=42	=42	=42	=42
4D	1r	4f	8.b-L
.	.	.	32ccLL
.	.	.	32ddJJJ
4E-	.	8.B-L	8.gL
.	.	16cJk	16ggJk
[2F	.	8.dL	[8b-L
.	.	.	32b-LL]
.	.	.	32a
.	.	16e-Jk	32g
.	.	.	32aJJJ
.	.	4f	8.aL
.	.	.	16b-Jk
!!LO:LB:g=original
=43	=43	=43	=43
16FLL]	1r	4g	4b-
32E-L	.	.	.
32DJ	.	.	.
16E-	.	.	.
16CJJ	.	.	.
8.AAtL	.	8.fL	8r
.	.	.	16r
32BB-LL	.	16e-Jk	16cc
32AAJJJ	.	.	.
8.BB-L	.	[4d	[8fL
.	.	.	32fLL]
.	.	.	32g
16B-k	.	.	32f
.	.	.	32eJJJ
8.A	.	16dLL]	8.fL
.	.	16c	.
.	.	16d	.
16GJk	.	16eXJJ	16gJk
=44	=44	=44	=44
8.FL	1r	8.fL	[4a
16FFk	.	16cJk	.
8.EE-	.	2f	16aLL]
.	.	.	16g
.	.	.	16a
16DDJk	.	.	16bXJJ
8.CCL	.	.	8.ccL
16Ck	.	.	16gJk
8.BB-	.	16eLL	[4cc
.	.	16d	.
.	.	16e	.
16AAJk	.	16f#XJJ	.
=45	=45	=45	=45
8.GGL<	1r	8.gL	4cc]
16Gk	.	16dJk	.
8.F	.	2g	16bLL
.	.	.	16aX
.	.	.	16b
16EJk	.	.	16cc#XJJ
[8DL	.	.	8.ddL
32DLL]	.	.	.
32A	.	.	.
32BX	.	.	16eeJk
32c#XJJJ	.	.	.
8.dL	.	[8fL	[4ff
.	.	32fLL]	.
.	.	32a	.
16cJk	.	32b-	.
.	.	32ccJJJ	.
=46	=46	=46	=46
8.B-L	1r	4dd	8.ffL]
16Ak	.	.	16ffk
8.B-	.	2g	8.ee
16GJk	.	.	16ddJk
4A	.	.	8.cc#XL
.	.	.	16aJ
4r	.	8.fL	[4dd
.	.	16dJk	.
!!LO:LB:g=original
=47	=47	=47	=47
2AA	1r	4e	8.ddL]
.	.	.	32ccnLL
.	.	.	32bXJJJ
.	.	8.aL	[4cc
.	.	16gJk	.
4.DD	.	8.fL	8.cc]L
.	.	16ek	32b-L
.	.	.	32aJJ
.	.	8.d	[4b-
8EE	.	.	.
.	.	16c#XJk	.
=48	=48	=48	=48
4.FF	4D	[2d	16b-]LL
.	.	.	16b-
.	.	.	16a
.	.	.	16gJJ
.	8.AL	.	[4f
8GG	.	.	.
.	16GJk	.	.
2AA	8.FL	8.dL]	8.fL]
.	16EJk	16ek	16gk
.	4D	8.f	8.a
.	.	16gJk	16b-Jk
=49	=49	=49	=49
2BB-	4C#X	4e	8.gL
.	.	.	32eeLL
.	.	.	32ffJJJ
.	8.DL	8r	8.ggL
.	.	16r	.
.	16EJk	16g	16cc#XJk
4.AA	[4F	8.fL	8.ddL
.	.	16gJk	16eek
.	16FLL]	[4a	8.cc#m
.	16G	.	.
8GG	16F	.	.
.	16EJJ	.	16ddJk
=50	=50	=50	=50
[2FF	8.DL	4a]	8.ddL
.	16C#Xk	.	16eek
.	8.D	4r	8.ff
.	16EJk	.	16ggJk
8.FFL]	8F	8r	[4aa
.	8r	32r	.
.	.	32eeLLL	.
16EEk	.	32dd	.
.	.	32cc#XJJJ	.
8.FF	4r	[4dd	8aa_LL
.	.	.	32aaL]
.	.	.	32aa
16GGJk	.	.	32gg
.	.	.	32ffJJJ
!!LO:LB:g=original
=51	=51	=51	=51
[2AA	8r	4dd_	[2ee
.	32r	.	.
.	32ELLL	.	.
.	32F#X	.	.
.	32G#JJJ	.	.
.	[4AX/	8dd_L	.
.	.	32ddLL]	.
.	.	32dd	.
.	.	32cc	.
.	.	32bXJJJ	.
8AAL_	8A/]	4cc	8.eeL]
32AALL]	8r	.	.
32C	.	.	.
32BBX	.	.	16ddk
32AAJJJ	.	.	.
[8GGL	4r	4r	8.ee
32GGLL]	.	.	.
32AA	.	.	.
32GG	.	.	16ffJk
32FFJJJ	.	.	.
=52	=52	=52	=52
8.EEL	2r	8r	[4gg
.	.	32r	.
.	.	32ddLLL	.
16DDk	.	32cc	.
.	.	32bXJJJ	.
8.EE	.	[2cc	8gg_L
.	.	.	32ggLL]
.	.	.	32gg
16FFJk	.	.	32ff
.	.	.	32eeJJJ
[2GG	8r	.	[2dd
.	32r	.	.
.	32DLLL	.	.
.	32E	.	.
.	32F#XJJJ	.	.
.	[4G	8cc_L	.
.	.	32ccLL]	.
.	.	32cc	.
.	.	32b-	.
.	.	32aJJJ	.
=53	=53	=53	=53
8GGL_	8G]	4b-	8.ddL]
32GGLL]	8r	.	.
32BB-	.	.	.
32AA	.	.	16cc#Xk
32GGJJJ	.	.	.
[8FFL	4r	4r	8.dd
32FFLL]	.	.	.
32GG	.	.	.
32FF	.	.	16eeJk
32EEJJJ	.	.	.
8.DDL	2r	8r	[4ff
.	.	32r	.
.	.	32ccLLL	.
16CCk	.	32b-	.
.	.	32aJJJ	.
8.DD	.	[4b-	8ff_L
.	.	.	32ffLL]
.	.	.	32ff
16EEJk	.	.	32ee
.	.	.	32ddJJJ
!!LO:LB:g=original
=54	=54	=54	=54
[2FF	8r	4b-_	[2cc
.	32r	.	.
.	32CLLL	.	.
.	32D	.	.
.	32EJJJ	.	.
.	[4F	8b-_L	.
.	.	32b-LL]	.
.	.	32b-	.
.	.	32a	.
.	.	32gJJJ	.
8FF]	16FLL]	[2a	8.ccL]
.	16G	.	.
8r	16F	.	.
.	16EJJ	.	16cck
4r	16DLL	.	8.ff
.	16F	.	.
.	16G	.	.
.	16AJJ	.	16eeJk
=55	=55	=55	=55
1r	16B-LL	8.aL]	8.ddL
.	16c	.	.
.	16B-	.	.
.	16AJJ	16dk	16ccJk
.	16GLL	8.g	[4b-
.	16F	.	.
.	16E	.	.
.	16DJJ	16fJk	.
.	16C#XLL	8.eL	8.b-L]
.	16G	.	.
.	16A	.	.
.	16B-JJ	16dJk	16ek
.	16ALL	4c#X	8.a
.	16G	.	.
.	16F	.	.
.	16EJJ	.	16gJk
=56	=56	=56	=56
1r	16DLL	[2d	8.fL
.	16A	.	.
.	16B-	.	.
.	16cJJ	.	16f#Xk
.	16B-LL	.	8.g
.	16A	.	.
.	16G	.	.
.	16F#XJJ	.	16aJk
.	[2G	16dLL]	8.b-L
.	.	16d	.
.	.	16e	.
.	.	16fJJ	16bXk
.	.	16eLL	8.cc#X
.	.	16d	.
.	.	16c#X	.
.	.	16BXJJ	16ddJk
=57	=57	=57	=57
1r	16GLL>]	[4c#X	4ee
.	16B-	.	.
.	16A	.	.
.	16GJJ	.	.
.	2F	16c#LL]	8.aaL
.	.	16A	.
.	.	16BX	.
.	.	16c#XJJ	16ggJk
.	.	8.dL	8.ffL
.	.	16ek	16eeJk
.	4B-	8.f	4dd
.	.	16gJk	.
!!LO:LB:g=original
=58	=58	=58	=58
8r	4A	2a	4cc#X
16r	.	.	.
16AA	.	.	.
8.BBXL	4r	.	8.ddL
16C#XJk	.	.	16eeJk
8.DL	4d	4.d	[4ff
16EJk	.	.	.
[4F	8.aL	.	16ffLL]
.	.	.	16gg
.	.	8e	16ff
.	16gJk	.	16eeJJ
=59	=59	=59	=59
8FL_	8.fL	4.f	4dd
32FLL]	.	.	.
32F	.	.	.
32G	16eJk	.	.
32AJJJ	.	.	.
8.B-L	4d	.	4r
.	.	8g	.
16BB-Jk	.	.	.
16AALL	4c#X	2a	2r
16B-	.	.	.
16A	.	.	.
16GJJ	.	.	.
16FLL	8.dL	.	.
16E	.	.	.
16D	.	.	.
16C#XJJ	16eJk	.	.
=60	=60	=60	=60
16DLL	[4f	2b-	1r
16cn	.	.	.
16B-	.	.	.
16AJJ	.	.	.
16GLL	16fLL]	.	.
16F	16a	.	.
16E	16g	.	.
16DJJ	16fJJ	.	.
16C#XLL	16eLL	4.a	.
16d	16f	.	.
16c#X	16e	.	.
16BXJJ	16dJJ	.	.
16ALL	4c#X	.	.
16G	.	.	.
16F	.	8g	.
16EJJ	.	.	.
=61	=61	=61	=61
16DLL	8.dL	[2f	1r
16E	.	.	.
16D	.	.	.
16CJJ	16AJk	.	.
16BB-LL	[8dL	.	.
16AA	.	.	.
16GG	32dLL]	.	.
.	32c	.	.
16FFJJ	32B-	.	.
.	32AJJJ	.	.
16GGLL	8.B-L	8.fL]	.
16D	.	.	.
16C	.	.	.
16BB-JJ	16GJk	16ek	.
16AALL	[4c	8.f	.
16GG	.	.	.
16FF	.	.	.
16EEJJ	.	16gJk	.
!!LO:LB:g=original
=62	=62	=62	=62
16FFLL	4c]	[4a	1r
16C	.	.	.
16D	.	.	.
16EJJ	.	.	.
16FLL	4r	16aLL]	.
16G	.	16c	.
16F	.	16d	.
16EJJ	.	16eJJ	.
16DLL	2r	16fLL	.
16F	.	16g	.
16G	.	16f	.
16AJJ	.	16eJJ	.
16B-LL	.	16dLL	.
16c	.	16f	.
16B-	.	16g	.
16AJJ	.	16aJJ	.
=63	=63	=63	=63
16GLL	2r	16b-LL	1r
16GG	.	16cc	.
16AA	.	16b-	.
16BB-JJ	.	16aJJ	.
16CLL	.	16gLL	.
16D	.	16G	.
16C	.	16A	.
16BB-JJ	.	16B-JJ	.
16AALL	4F	16cLL	.
16BB-	.	16d	.
16AA	.	16c	.
16GGJJ	.	16B-JJ	.
[4FF	8.cL	16ALL	.
.	.	16B-	.
.	.	16A	.
.	16B-Jk	16GJJ	.
=64	=64	=64	=64
4FF_	8.AL	[8FL	2r
.	.	32FLL]	.
.	.	32A	.
.	16GJk	32BX	.
.	.	32c#XJJJ	.
8FFL_	4F	[4d	.
32FFLL]	.	.	.
32EE	.	.	.
32FF	.	.	.
32GGJJJ	.	.	.
16AALL	4E	8.dL]	2a
16B-	.	.	.
16A	.	.	.
16GJJ	.	16c#Xk	.
16FLL	8.FL	8.d	.
16EJ	.	.	.
[8DJ	.	.	.
.	16GJk	16eJk	.
!!LO:LB:g=original
=65	=65	=65	=65
16DLL]	[4A/	4f	4.d
16C	.	.	.
16BB-	.	.	.
16AAJJ	.	.	.
16BB-LL	16ALL>]	4r	.
16GGJ	16B-	.	.
8C#XJ	16A	.	8e
.	16GJJ	.	.
16DLL	16FLL	4d	4.f
16BB-	16G	.	.
16AA	16F	.	.
16GGJJ	16EJJ	.	.
16FFLL	8.DL	8.aL	.
16GG	.	.	.
16FF	.	.	8g
16EEJJ	16AJk	16gJk	.
=66	=66	=66	=66
16DDLL	8.dL	8.fL	2a
16AA	.	.	.
16BB-	.	.	.
16CJJ	16ck	16eJk	.
16DLL	8.B-	4d	.
16EJ	.	.	.
8FJ	.	.	.
.	16AJk	.	.
16r	8G	4c#X	2b-
16ELL	.	.	.
16F	8r	.	.
16GJJ	.	.	.
16FLL	4r	8.dL	.
16E	.	.	.
16D	.	.	.
16C#XJJ	.	16eJk	.
=67	=67	=67	=67
[2.D	16r	[4f	4.a
.	16ELL	.	.
.	16F	.	.
.	16GJJ	.	.
.	[4A/	16fLL]	.
.	.	16g	.
.	.	16f	8g
.	.	16eJJ	.
.	16ALL>]	8.dL	[2f
.	16B-	.	.
.	16A	.	.
.	16GJJ	16Ak	.
16DLL]	[4F	8.B-	.
16E-	.	.	.
16D	.	.	.
16CJJ	.	16cJk	.
!!LO:LB:g=original
=68	=68	=68	=68
[4BB-	16FLL]	[2d	8.fL]
.	16E	.	.
.	16D	.	.
.	16C#XJJ	.	16ek
16BB-LL]	2D	.	8.f
16BB-	.	.	.
16AA	.	.	.
16GGJJ	.	.	16gJk
4FF#X	.	8.dL]	[2a
.	.	16Ak	.
4r	8r	8.d	.
.	16r	.	.
.	16D	16cJk	.
=69	=69	=69	=69
4r	8.GL	8.B-L	8aL_
.	.	.	32aLL]
.	.	.	32d
.	16Fk	16AJk	32e
.	.	.	32fJJJ
8r	8.E	[4B-	[2.g
16r	.	.	.
16GG	16DJk	.	.
[8CL	[4E	8.B-L]	.
32CLL]	.	.	.
32D	.	.	.
32C	.	16Gk	.
32BB-JJJ	.	.	.
4AA	8.EL]	8.c	.
.	16CJk	16B-Jk	.
=70	=70	=70	=70
4r	8.FL	8.AL	8gL_
.	.	.	32gLL]
.	.	.	32c
.	16Ek	16GJk	32d
.	.	.	32eJJJ
8r	8.D	2A	[4f
16r	.	.	.
16FF	16C#XJk	.	.
[8BB-L	[4D	.	8.fL]
32BB-LL]	.	.	.
32C	.	.	.
32BB-	.	.	16dk
32AAJJJ	.	.	.
8.BB-L	8.DL]	8.GL	8.g
16BBXJk	[16GJk	16dJk	16fJk
=71	=71	=71	=71
8.CL	4G]	8.cL	8.eL
16BB-Xk	.	16ek	16gk
8.AA	8r	8.f	8.cc
.	16r	.	.
16CJk	16E	16gJk	16b-Jk
8.FL	8.AL>	8.fL	8.aL
16E-ik	16Gk	16gJk	16cck
8.D	8.F	[4a	8.ff
16FJk	16cJk	.	16ee-Jk
!!LO:LB:g=original
=72	=72	=72	=72
8.B-L	8.dL	8.aL]	4.dd
16Ak	16ck	16f#Xk	.
8.G	8.B-	8.g	.
.	.	.	16r
16FJk	16AJk	16aJk	16dd
8.EL	4.G	4.b-	4.cc#X
16Fk	.	.	.
8.E	.	.	.
.	16r	16r	16r
16DJk	16G	16b-	16ee
=73	=73	=73	=73
4C#X;	4G;	4e;	4a;
8r	8r	8r	8r
8AA	8A	8cc#X	32eeLLL
.	.	.	32ffJ
.	.	.	16ggJJ
8.DL	8A	8dd	16ffLL
.	.	.	16ee
.	8r	8r	16dd
16Ek	.	.	16cc#XJJ
8.F	8r	8r	[4dd
.	16r	16r	.
16GJk	16B-	16e	.
=74	=74	=74	=74
8.AL	8.AL	8.fL	8.ddL]
16Gk	16B-Jk	16gJk	16eek
8.A	8A	8.e	8.cc#
.	8r	.	.
.	.	.	.
16AAJk	.	16gJk	16ddJk
[2D	4A	[8gL	4dd
.	.	32gLL]	.
.	.	32g	.
.	.	32f#X	.
.	.	32eJJJ	.
.	8.dL	8.f#L	4r
.	16cJk	16aJk	.
=75	=75	=75	=75
1D_	8.B-L	8.dL	2r
.	16AJk	16ck	.
.	4G	8.B-	.
.	.	16e-Jk	.
.	4F#X	[8AL	2dd
.	.	32ALL]	.
.	.	32a	.
.	.	32b-	.
.	.	32ccJJJ	.
.	8.GL	16b-LL	.
.	.	16a	.
.	.	16g	.
.	16AJk	16f#XJJ	.
!!LO:LB:g=original
=76	=76	=76	=76
*	*	*	*^
1D_	[4B-	8.gL	2rdd	4.g
.	.	16dk	.	.
.	16B-LL]	8.e	.	.
.	16c	.	.	.
.	16B-	.	.	8a
.	16AJJ	16f#XJk	.	.
.	4.G	4g	8rff	4.b-
.	.	.	16raa	.
.	.	.	16dd	.
.	.	8.ddL	8.ggL	.
.	8A	.	.	8cc
.	.	16ccJk	16ff#XJk	.
=77	=77	=77	=77	=77
1D_	8.B-L	8.b-L	8.ggL	2dd
.	16ck	16aJk	16aaK	.
.	8.d	4g	8.bb-	.
.	16B-Jk	.	16ggJk	.
.	8.cL	4f#X	8.aaL	2ee-
.	16Ak	.	32bb-LL	.
.	.	.	32cccJJJ	.
.	8.B-	8.gL	16bb-LL	.
.	.	.	16aa	.
.	.	.	16gg	.
.	16cJk	16aJk	16ff#XJJ	.
=78	=78	=78	=78	=78
1D_	[8dL	[4b-	[1gg	4.dd
.	32dLL]	.	.	.
.	32D	.	.	.
.	32E	.	.	.
.	32F#XJJJ	.	.	.
.	8.GL	16b-LL]	.	.
.	.	16cc	.	.
.	.	16b-	.	8cc
.	16AJk	16aJJ	.	.
.	8.B-L	[4g	.	[2b-
.	16cJk	.	.	.
.	16dLL	16gLL]	.	.
.	16c	16a	.	.
.	16B-	16g	.	.
.	16AJJ	16f#XJJ	.	.
=79	=79	=79	=79	=79
1D;]	8G	8e	8.ggL]	8.b-L]
.	8r	8r	.	.
.	.	.	16ff#Xk	16ak
.	8r	8r	8.gg	8.b-
.	16r	16r	.	.
*	*^	*	*	*
.	16e 16B-	16G	16g	16eeJk	16cc#XJk
.	2d 2A;	2F#X;y	2a;	2ff#;	2dd;y
*	*v	*v	*	*	*
*	*	*	*v	*v
==	==	==	==
*-	*-	*-	*-
!!!RDF**kern: i = editorial accidental
!!!RDF**kern: > = above
!!!RDF**kern: < = below
!!!system-decoration: [(s1,s2,s3,s4)]
!!!URL-pdf: https://vmirror.imslp.org/files/imglnks/usimg/8/88/IMSLP504269-PMLP05843-BGA-25.1.pdf#page=22 @{SMS1}, page 22
!!!URL-pdf: https://s9.imslp.org/files/imglnks/usimg/1/1d/IMSLP469177-PMLP5843-Bach,_J.S._-_The_Art_of_the_Fugue.pdf#page=26 @{SMS2}, page 26
!!!URL-youtube: https://www.youtube.com/watch?v=OMtjlaDEMdI&t=1162s Netherlands Bach Society/Malinowski
!!!URL-youtube: https://www.youtube.com/watch?v=N6sUlZa-IrU&t=1162s Netherlands Bach Society
!!!SMS: @{SMS1}
!!!SMS1: Bach-Gesellschaft Ausgabe, Band 25.1 Leipzig: Breitkopf und Härtel, 1878. Plate B.W. XXV (1).
!!!SMS2: Bach-Gesellschaft Ausgabe, Band 47 Leipzig: Breitkopf und Härtel, 1926. Plate B.W. XLVII.
!!!ONB: Nach dem Berliner Autograph Nr. 7.
!!!PED: Wilhelm Rust
!!!PED-ODT: 1822-1892
!!!ONB: Die Kunst der Fuge nach dem Berliner Autograph in Anordnung und Lesarten
!!!ENC: Craig Stuart Sapp
!!!END: 2024/03/21
!!!EED: Craig Stuart Sapp
!!!EEV: 2024/03/28
!!!title: @{OPR} (@{SCA}), @{OTL}
!!!filter-keyboard: autostem -r | satb2gs | shed -e s/clefC./clefG2/I
!!!filter-modern: modori -m | autostem -r
